X:159
T:Hela'r Geinach - Hunting the Hare
M:2/4
L:1/8
Q:220
C:Trad.
R:Processional
K:D
A | D>E DF | A>B AF | DF AF | E2 EA | D>E DF | A>B AF|
DF AF | E2 E2 | A>B AF | AB AG/A/ | BA GF | E2 E2 |
DF A2 | BA F2 | DF A2 | BA F2 | DF AF | E2 D ||
